X:1
T:Title
%%score { 1 | 2 }
L:1/8
Q:1/4=100
M:4/8
K:G
V:1 treble nm="Grand Piano"
V:2 treble 
V:1
 BBAB | [Ac]2 [FA][FA] | [EG]2 [EG][CE] | [B,D]3 G | F2 GA | G B2 B | A2 B^c | [Fd]3 z | %8
w: John~D.~Creswell * * *||||||||
 [GB]<.[Gd][FA]<.[FB] | G2 G z | GB[A,^DF][B,DG] | [G,E]3 z | [G,B,D][G,DG]AB | [=Fd][Ec] [Ec]2 | %14
w: ||||||
 [DB][Ec][CA]>[B,G] | [B,G]3 z |] %16
w: ||
V:2
 [G,DG][G,DG][G,DF][G,DG] | [D,D]2 [D,D][D,C] | [E,B,]2 [C,C][C,G,] | [G,,G,]3 [G,B,D] | %4
 [D,A,D]2 [D,B,D][D,CD] | [G,B,D] [G,DG]2 [G,DG] | [A,DF]2 [A,DG][A,EG] | [D,D]3 z | %8
 [G,D]<.[G,B,][D,C]<.[D,D] | [E,B,E]2 [E,B,E] z | [E,B,E][E,G,E]B,,B,, | C,3 z | %12
 G,,B,,[D,F,D][G,D] | [B,,G,][C,G,] [C,G,]2 | [D,G,][D,G,][D,F,]>[G,,G,] | [G,,G,]3 z |] %16

